X:35
T:Reel 35
M:4/4
K:Dmaj
L:1/8
B|A2AF AFdF|GFAF EFEc|c2BA FAdf|gfed cABc|d2dc dAFD|E2AF GFEF|DFAc BcdB|AFEG FDD|c|d2fd  (3fga fd|g2bg ecAc|d2fd fafd|ABde fdde|d2fd efgb|afdf edBc|d2fg abaf|gfed cABc|
